X:440
T: Tom Billy's
T: Flowers of Spring
M: 6/8
L: 1/8
R: Jig
K: Ador
ABA ABd|edB G2B|dBB GBB|ABd efg|
ABA ABd|edB G2B|dBB gBB|ABA A3 :|
eaa aga|bab g3|ege GBd|ede ged|
eaa aga|bab g3|ege dBG|ABA A3 :|
